build/img/logo/logo-tablet.svg

<svg width="134" height="24" viewBox="0 0 134 24" fill="none" xmlns="http://www.w3.org/2000/svg">
  <path
    d="M44.79 23H42.072V12.416H38.922C38.85 12.968 38.772 13.568 38.688 14.216C38.616 14.864 38.532 15.524 38.436 16.196C38.352 16.856 38.262 17.486 38.166 18.086C38.07 18.674 37.974 19.196 37.878 19.652C37.722 20.396 37.512 21.032 37.248 21.56C36.996 22.088 36.642 22.49 36.186 22.766C35.742 23.042 35.16 23.18 34.44 23.18C33.972 23.18 33.54 23.114 33.144 22.982V20.75C33.3 20.798 33.45 20.84 33.594 20.876C33.75 20.912 33.918 20.93 34.098 20.93C34.446 20.93 34.71 20.75 34.89 20.39C35.082 20.018 35.274 19.328 35.466 18.32C35.538 17.936 35.64 17.336 35.772 16.52C35.904 15.704 36.048 14.75 36.204 13.658C36.372 12.554 36.528 11.384 36.672 10.148H44.79V23ZM48.0321 10.148H50.4801V16.358C50.4801 16.658 50.4741 16.994 50.4621 17.366C50.4501 17.738 50.4381 18.104 50.4261 18.464C50.4141 18.812 50.4021 19.118 50.3901 19.382C50.3781 19.634 50.3661 19.808 50.3541 19.904H50.4081L56.3481 10.148H59.6061V23H57.1761V16.826C57.1761 16.502 57.1821 16.148 57.1941 15.764C57.2061 15.368 57.2181 14.99 57.2301 14.63C57.2541 14.27 57.2721 13.958 57.2841 13.694C57.3081 13.418 57.3261 13.238 57.3381 13.154H57.2661L51.3081 23H48.0321V10.148ZM70.9685 10.148V12.398H65.5685V23H62.8505V10.148H70.9685ZM79.5407 23L78.6047 19.94H73.9247L72.9887 23H70.0547L74.5907 10.094H77.9207L82.4747 23H79.5407ZM77.9567 17.654L77.0207 14.666C76.9607 14.462 76.8827 14.204 76.7867 13.892C76.6907 13.58 76.5947 13.262 76.4987 12.938C76.4027 12.614 76.3247 12.332 76.2647 12.092C76.2047 12.332 76.1207 12.632 76.0127 12.992C75.9167 13.34 75.8207 13.676 75.7247 14C75.6407 14.312 75.5747 14.534 75.5267 14.666L74.6087 17.654H77.9567ZM89.2528 23V10.148H97.3708V12.398H91.9708V15.08H93.0508C94.2628 15.08 95.2528 15.248 96.0208 15.584C96.8008 15.92 97.3768 16.382 97.7488 16.97C98.1208 17.558 98.3068 18.23 98.3068 18.986C98.3068 20.258 97.8808 21.248 97.0288 21.956C96.1888 22.652 94.8448 23 92.9968 23H89.2528ZM91.9708 20.768H92.8888C93.7168 20.768 94.3648 20.636 94.8328 20.372C95.3128 20.108 95.5528 19.646 95.5528 18.986C95.5528 18.302 95.2948 17.852 94.7788 17.636C94.2628 17.42 93.5608 17.312 92.6728 17.312H91.9708V20.768ZM104.547 12.974C105.867 12.974 106.875 13.262 107.571 13.838C108.279 14.402 108.633 15.272 108.633 16.448V23H106.761L106.239 21.668H106.167C105.747 22.196 105.303 22.58 104.835 22.82C104.367 23.06 103.725 23.18 102.909 23.18C102.033 23.18 101.307 22.928 100.731 22.424C100.155 21.908 99.8673 21.122 99.8673 20.066C99.8673 19.022 100.233 18.254 100.965 17.762C101.697 17.258 102.795 16.982 104.259 16.934L105.969 16.88V16.448C105.969 15.932 105.831 15.554 105.555 15.314C105.291 15.074 104.919 14.954 104.439 14.954C103.959 14.954 103.491 15.026 103.035 15.17C102.579 15.302 102.123 15.47 101.667 15.674L100.785 13.856C101.313 13.58 101.895 13.364 102.531 13.208C103.179 13.052 103.851 12.974 104.547 12.974ZM105.969 18.446L104.925 18.482C104.061 18.506 103.461 18.662 103.125 18.95C102.789 19.238 102.621 19.616 102.621 20.084C102.621 20.492 102.741 20.786 102.981 20.966C103.221 21.134 103.533 21.218 103.917 21.218C104.493 21.218 104.979 21.05 105.375 20.714C105.771 20.366 105.969 19.88 105.969 19.256V18.446ZM114.061 13.172V16.952H117.805V13.172H120.487V23H117.805V18.95H114.061V23H111.379V13.172H114.061ZM129.741 13.172H132.693L128.805 17.888L133.035 23H129.993L125.979 18.014V23H123.297V13.172H125.979V17.942L129.741 13.172Z"
    fill="#1F1E25"/>
  <path d="M14.5 1H12L1 19.7805H4.25L5.75 17.0976L14.5 1Z" fill="#2C36F2"/>
  <path d="M2.5 23H23.5L14.5 6.36585L13 9.04878L17.5 17.0976L19 19.7805H4.25H1L2.5 23Z" fill="#2C36F2"/>
  <path d="M19 19.7805L17.5 17.0976H8.5H5.75L4.25 19.7805H19Z" fill="#2C36F2"/>
  <path d="M23.5 23L25 19.7805L14.5 1L5.75 17.0976H8.5L13 9.04878L14.5 6.36585L23.5 23Z" fill="#2C36F2"/>
  <path d="M13 9.04878L8.5 17.0976H17.5L13 9.04878Z" fill="#2C36F2"/>
  <path
    d="M23.5 23H2.5L1 19.7805M23.5 23L25 19.7805L14.5 1M23.5 23L14.5 6.36585L13 9.04878M14.5 1H12L1 19.7805M14.5 1L5.75 17.0976M1 19.7805H4.25M13 9.04878L8.5 17.0976M13 9.04878L17.5 17.0976M8.5 17.0976H17.5M8.5 17.0976H5.75M17.5 17.0976L19 19.7805H4.25M5.75 17.0976L4.25 19.7805"
    stroke="#F6F7FF"/>
</svg>

<svg width="134" height="24" fill="none" xmlns="http://www.w3.org/2000/svg"><path d="M44.79 23h-2.718V12.416h-3.15l-.234 1.8a63.91 63.91 0 01-.252 1.98c-.084.66-.174 1.29-.27 1.89-.096.588-.192 1.11-.288 1.566-.156.744-.366 1.38-.63 1.908-.252.528-.606.93-1.062 1.206-.444.276-1.026.414-1.746.414-.468 0-.9-.066-1.296-.198V20.75c.156.048.306.09.45.126.156.036.324.054.504.054.348 0 .612-.18.792-.54.192-.372.384-1.062.576-2.07.072-.384.174-.984.306-1.8.132-.816.276-1.77.432-2.862.168-1.104.324-2.274.468-3.51h8.118V23zm3.242-12.852h2.448v6.21c0 .3-.006.636-.018 1.008l-.036 1.098c-.012.348-.024.654-.036.918a8.082 8.082 0 01-.036.522h.054l5.94-9.756h3.258V23h-2.43v-6.174c0-.324.006-.678.018-1.062l.036-1.134c.024-.36.042-.672.054-.936.024-.276.042-.456.054-.54h-.072L51.308 23h-3.276V10.148zm22.937 0v2.25h-5.4V23H62.85V10.148h8.119zM79.54 23l-.936-3.06h-4.68L72.989 23h-2.934l4.536-12.906h3.33L82.475 23H79.54zm-1.584-5.346l-.936-2.988c-.06-.204-.138-.462-.234-.774s-.192-.63-.288-.954a20.75 20.75 0 01-.234-.846c-.06.24-.144.54-.252.9-.096.348-.192.684-.288 1.008-.084.312-.15.534-.198.666l-.918 2.988h3.348zM89.253 23V10.148h8.118v2.25h-5.4v2.682h1.08c1.212 0 2.202.168 2.97.504.78.336 1.356.798 1.728 1.386.372.588.558 1.26.558 2.016 0 1.272-.426 2.262-1.278 2.97-.84.696-2.184 1.044-4.032 1.044h-3.744zm2.718-2.232h.918c.828 0 1.476-.132 1.944-.396.48-.264.72-.726.72-1.386 0-.684-.258-1.134-.774-1.35-.516-.216-1.218-.324-2.106-.324h-.702v3.456zm12.576-7.794c1.32 0 2.328.288 3.024.864.708.564 1.062 1.434 1.062 2.61V23h-1.872l-.522-1.332h-.072c-.42.528-.864.912-1.332 1.152-.468.24-1.11.36-1.926.36-.876 0-1.602-.252-2.178-.756-.576-.516-.864-1.302-.864-2.358 0-1.044.366-1.812 1.098-2.304.732-.504 1.83-.78 3.294-.828l1.71-.054v-.432c0-.516-.138-.894-.414-1.134-.264-.24-.636-.36-1.116-.36-.48 0-.948.072-1.404.216-.456.132-.912.3-1.368.504l-.882-1.818a7.727 7.727 0 011.746-.648 8.584 8.584 0 012.016-.234zm1.422 5.472l-1.044.036c-.864.024-1.464.18-1.8.468-.336.288-.504.666-.504 1.134 0 .408.12.702.36.882.24.168.552.252.936.252.576 0 1.062-.168 1.458-.504.396-.348.594-.834.594-1.458v-.81zm8.092-5.274v3.78h3.744v-3.78h2.682V23h-2.682v-4.05h-3.744V23h-2.682v-9.828h2.682zm15.68 0h2.952l-3.888 4.716 4.23 5.112h-3.042l-4.014-4.986V23h-2.682v-9.828h2.682v4.77l3.762-4.77z" fill="#1F1E25"/><path d="M14.5 1H12L1 19.78h3.25l1.5-2.682L14.5 1z" fill="#2C36F2"/><path d="M2.5 23h21l-9-16.634L13 9.049l4.5 8.049L19 19.78H1L2.5 23z" fill="#2C36F2"/><path d="M19 19.78l-1.5-2.682H5.75l-1.5 2.683H19z" fill="#2C36F2"/><path d="M23.5 23l1.5-3.22L14.5 1 5.75 17.098H8.5l4.5-8.05 1.5-2.682L23.5 23z" fill="#2C36F2"/><path d="M13 9.049l-4.5 8.049h9L13 9.048z" fill="#2C36F2"/><path d="M23.5 23h-21L1 19.78M23.5 23l1.5-3.22L14.5 1m9 22l-9-16.634L13 9.049M14.5 1H12L1 19.78M14.5 1L5.75 17.098M1 19.78h3.25M13 9.049l-4.5 8.049m4.5-8.05l4.5 8.05m-9 0h9m-9 0H5.75m11.75 0L19 19.78H4.25m1.5-2.683l-1.5 2.683" stroke="#F6F7FF"/></svg>
